resources/icons/add_photo_alternate_black_24dp.svg

<svg xmlns="http://www.w3.org/2000/svg" height="24px" viewBox="0 0 24 24" width="24px" fill="#000000"><path d="M0 0h24v24H0V0z" fill="none"/><path d="M18 20H4V6h9V4H4c-1.1 0-2 .9-2 2v14c0 1.1.9 2 2 2h14c1.1 0 2-.9 2-2v-9h-2v9zm-7.79-3.17l-1.96-2.36L5.5 18h11l-3.54-4.71zM20 4V1h-2v3h-3c.01.01 0 2 0 2h3v2.99c.01.01 2 0 2 0V6h3V4h-3z"/></svg>

<svg id="add_photo_alternate_black_24dp" xmlns="http://www.w3.org/2000/svg" width="24" height="24" viewBox="0 0 24 24">
  <path id="Path_250" data-name="Path 250" d="M0,0H24V24H0Z" fill="none"/>
  <path id="Path_251" data-name="Path 251" d="M18,20H4V6h9V4H4A2.006,2.006,0,0,0,2,6V20a2.006,2.006,0,0,0,2,2H18a2.006,2.006,0,0,0,2-2V11H18Zm-7.79-3.17L8.25,14.47,5.5,18h11l-3.54-4.71ZM20,4V1H18V4H15c.01.01,0,2,0,2h3V8.99c.01.01,2,0,2,0V6h3V4Z" fill="#fff"/>
</svg>
